Simply-White-Circles/scalable/places/folder-favorites.svg

<svg xmlns="http://www.w3.org/2000/svg" width="48" height="48" viewBox="0 0 12.7 12.7"><path d="M6.35.06A6.29 6.29 0 0 0 .06 6.35a6.29 6.29 0 0 0 6.29 6.29 6.29 6.29 0 0 0 6.29-6.29A6.29 6.29 0 0 0 6.35.06zM6.33 1a5.4 5.4 0 0 1 5.4 5.4 5.4 5.4 0 0 1-2.22 4.37c.15-.5-.49-3.1-.39-3.4.1-.34 2.4-2.28 2.29-2.61-.1-.33-3.08-.54-3.35-.74C7.78 3.82 6.67 1 6.33 1 6 1 4.9 3.8 4.61 4.02c-.28.2-3.25.4-3.35.74-.1.33 2.17 2.27 2.28 2.6.1.32-.53 2.92-.38 3.41A5.4 5.4 0 0 1 .93 6.4 5.4 5.4 0 0 1 6.33 1zm0 8.43c.32 0 2.54 1.41 3.05 1.43a5.4 5.4 0 0 1-3.05.95 5.4 5.4 0 0 1-3.06-.95c.5 0 2.74-1.43 3.06-1.43z" fill="#e6e6e6"/></svg>

<?xml version="1.0" encoding="UTF-8" standalone="no"?>
<svg
   xmlns:dc="http://purl.org/dc/elements/1.1/"
   xmlns:cc="http://creativecommons.org/ns#"
   xmlns:rdf="http://www.w3.org/1999/02/22-rdf-syntax-ns#"
   xmlns:svg="http://www.w3.org/2000/svg"
   xmlns="http://www.w3.org/2000/svg"
   xmlns:sodipodi="http://sodipodi.sourceforge.net/DTD/sodipodi-0.dtd"
   xmlns:inkscape="http://www.inkscape.org/namespaces/inkscape"
   width="48"
   height="48"
   viewBox="0 0 12.7 12.7"
   version="1.1"
   id="svg4"
   sodipodi:docname="folder-favorites.svg"
   inkscape:version="0.92.4 (5da689c313, 2019-01-14)">
  <metadata
     id="metadata10">
    <rdf:RDF>
      <cc:Work
         rdf:about="">
        <dc:format>image/svg+xml</dc:format>
        <dc:type
           rdf:resource="http://purl.org/dc/dcmitype/StillImage" />
        <dc:title></dc:title>
      </cc:Work>
    </rdf:RDF>
  </metadata>
  <defs
     id="defs8" />
  <sodipodi:namedview
     pagecolor="#ffffff"
     bordercolor="#666666"
     borderopacity="1"
     objecttolerance="10"
     gridtolerance="10"
     guidetolerance="10"
     inkscape:pageopacity="0"
     inkscape:pageshadow="2"
     inkscape:window-width="1085"
     inkscape:window-height="480"
     id="namedview6"
     showgrid="false"
     inkscape:zoom="4.9166667"
     inkscape:cx="2.1355932"
     inkscape:cy="24"
     inkscape:window-x="0"
     inkscape:window-y="25"
     inkscape:window-maximized="0"
     inkscape:current-layer="svg4" />
  <path
     d="M 6.35,0.06 A 6.29,6.29 0 0 0 0.06,6.35 6.29,6.29 0 0 0 6.35,12.64 6.29,6.29 0 0 0 12.64,6.35 6.29,6.29 0 0 0 6.35,0.06 Z M 6.33,1 a 5.4,5.4 0 0 1 5.4,5.4 5.4,5.4 0 0 1 -2.2199997,4.37 C 9.6600003,10.27 9.02,7.67 9.12,7.37 9.22,7.03 11.52,5.09 11.41,4.76 11.31,4.43 8.33,4.22 8.06,4.02 7.78,3.82 6.67,1 6.33,1 6,1 4.9,3.8 4.61,4.02 4.33,4.22 1.36,4.42 1.26,4.76 1.16,5.09 3.43,7.03 3.54,7.36 3.64,7.68 3.01,10.28 3.16,10.77 A 5.4,5.4 0 0 1 0.93000003,6.4 5.4,5.4 0 0 1 6.33,1 Z m 0,8.43 c 0.32,0 2.54,1.41 3.05,1.43 A 5.4,5.4 0 0 1 6.33,11.81 5.4,5.4 0 0 1 3.27,10.86 c 0.5,0 2.74,-1.43 3.06,-1.43 z"
     id="path2"
     inkscape:connector-curvature="0"
     style="fill:#e6e6e6" />
</svg>
